modules/stroke-7/icons/prev.svg

<?xml version="1.0" encoding="utf-8"?>
<!-- Generated by IcoMoon.io -->
<!DOCTYPE svg PUBLIC "-//W3C//DTD SVG 1.1//EN" "http://www.w3.org/Graphics/SVG/1.1/DTD/svg11.dtd">
<svg version="1.1" xmlns="http://www.w3.org/2000/svg" xmlns:xlink="http://www.w3.org/1999/xlink" width="32" height="32" viewBox="0 0 32 32">
<g id="icomoon-ignore">
</g>
<path d="M16 15.999l14.928 8.531v-17.060l-14.928 8.529zM29.861 22.693l-11.712-6.693 11.712-6.692v13.385z" fill="#000000"></path>
<path d="M1.073 15.999l14.928 8.531v-17.060l-14.928 8.529zM14.934 22.693l-11.712-6.693 11.712-6.692v13.385z" fill="#000000"></path>
</svg>

<svg xmlns="http://www.w3.org/2000/svg" width="32" height="32" viewBox="0 0 32 32"><path d="M16 15.999l14.928 8.531V7.47L16 15.999zm13.861 6.694L18.149 16l11.712-6.692v13.385z"/><path d="M1.073 15.999l14.928 8.531V7.47L1.073 15.999zm13.861 6.694L3.222 16l11.712-6.692v13.385z"/></svg>
